!!!!SEGMENT: pl-wtm--r-231-m_moniuszko-stanislaw--choragiewka.krn
!!!cenid: 18xx:1637
!!!COM: Moniuszko, Stanisław
!!!COM-rismID: pe30008351
!!!CDT: 1819/05/05-1872/06/04
!!!CNT: Polish
!!!OTL: Chorągiewka
!!!PDT:
!!!AGN: Secular
!!!SMS-siglum: PL-Wtm
!!!SMS-shelfmark: R 231/M
!!!SMS-shelfwork: W
!!!SMS-variant:
!!!SMS-altvar:
!!!NIFC-rismSourceID: 1001063763
!!!NIFC-islandoraID:
!!!URL-pdf-islandora:
!!!URL-scan:
!!!ONB-nifc:
!!!AIN: 2 empty
!!!key:
**kern	**kern	**dynam	**kern	**text
*part2	*part2	*part2	*part1	*part1
*staff3	*staff2	*	*staff1	*staff1
*Iempty	*Iempty	*	*Iempty	*
*I"	*I"	*	*I"	*
*clefF4	*clefG2	*	*clefG2	*
*k[b-e-]	*k[b-e-]	*	*k[b-e-]	*
*B-:	*B-:	*	*B-:	*
*M3/8	*M3/8	*	*M3/8	*
*>[A,B,B,C]	*>[A,B,B,C]	*	*>[A,B,B,C]	*
=1	=1	=1	=1	=1
*>A	*>A	*	*>A	*
!	!	!	!LO:TX:a:i:t=allegretto.	!
!	!	!LO:DY:t=p.	!LO:TX:a:i:t=N&colon;6. Chorągiewka&colon; (&colon;b&colon;) K. Brodzińskiego	!
8B-L 8F 8D 8BB-\	4.r	p	4.r	.
8B- 8F 8D 8BB-\	.	.	.	.
8B-J 8F 8D 8BB-\	.	.	.	.
=2	=2	=2	=2	=2
8B-L 8F 8D 8BB-\	8r	.	4.r	.
8B- 8F 8D 8BB-\	8r	.	.	.
!	!LO:TX:b:i:t=legierissimo.	!	!	!
8B-J 8F 8D 8BB-\	(32bb-\LLL	.	.	.
.	32ddd\JJJ)	.	.	.
.	16r	.	.	.
=3!|:	=3!|:	=3!|:	=3!|:	=3!|:
*>B	*>B	*	*>B	*
*tremolo	*	*	*	*
8B- 8F 8D 8BB-\L	16.cccT\LL	.	4.r	.
.	32bb-\JJk	.	.	.
8B- 8F 8D 8BB-\	(8.ddd\L	.	.	.
8B- 8F 8D 8BB-\J	.	.	.	.
.	16ff\Jk)	.	.	.
=4	=4	=4	=4	=4
8B- 8F 8D 8BB-\L	16.ggT\LL	.	4.r	.
.	32ff\JJk	.	.	.
8B- 8F 8D 8BB-\	(8.bb-\L	.	.	.
8B- 8F 8D 8BB-\J	.	.	.	.
.	16dd\Jk)	.	.	.
=5	=5	=5	=5	=5
8A 8F 8E- 8BB-\L	16.ee-T\LL	.	4.r	.
.	32dd\JJk	.	.	.
8A 8F 8E- 8BB-\	8cc|\L	.	.	.
8A 8F 8E- 8BB-\J	8ff|\J	.	.	.
=6	=6	=6	=6	=6
.	(32qqff/LLL	.	.	.
.	32qqee-/JJJ)	.	.	.
8B- 8F 8D 8BB-\L	4.dd\	.	4.r	.
8B- 8F 8D 8BB-\	.	.	.	.
8B- 8F 8D 8BB-\J	.	.	.	.
=7	=7	=7	=7	=7
8B- 8F 8D 8BB-\L	16.ccT\LL	.	4.r	.
.	32b-\JJk	.	.	.
!	!LO:TX:a:t=P:problem=mixed beam	!	!	!
8B- 8F 8D 8BB-\	(8.dd\L	.	.	.
8B- 8F 8D 8BB-\J	.	.	.	.
.	16f/Jk)	.	.	.
=8	=8	=8	=8	=8
8B- 8F 8D 8BB-\L	16.gT/LL	.	4.r	.
.	32f/JJk	.	.	.
8B- 8F 8D 8BB-\	(8.b-/L	.	.	.
8B- 8F 8D 8BB-\J	.	.	.	.
.	16d/Jk)	.	.	.
*Xtremolo	*	*	*	*
=9	=9	=9	=9	=9
8GL 8E- 8BB-\	16.e-T/LL	.	4.r	.
.	32d/JJk	.	.	.
8G 8E- 8BB-\	8c/L	.	.	.
8AJ 8E- 8BB-\	8f/J	.	.	.
=10	=10	=10	=10	=10
*	*^	*	*	*
.	(32qqen/LLL	.	.	.	.
.	32qqg/JJJ	.	.	.	.
8B-L 8D 8BB-\	4.f^/)	8r	.	4.r	.
8B- 8F 8BB-\	.	8d\L	.	.	.
8B-J 8F 8BB-\	.	8d\J	.	.	.
!!LO:LB:g=original
=11	=11	=11	=11	=11	=11
*tremolo	*tremolo	*	*	*	*
8A 8F 8BB-\L	[4.f/	8e-\L	.	8.cc\	Lu-
8A 8F 8BB-\	.	8e-\	.	.	.
.	.	.	.	16b-\	-by
8A 8F 8BB-\J	.	8e-\J	.	16a/	niech
.	.	.	.	16g/	do
*	*	*Xtremolo	*	*	*
=12	=12	=12	=12	=12	=12
8B- 8F 8BB-\L	16f/LL]	8d\L	.	16f/	bo-
.	16g/J	.	.	16g/	-ju
8B- 8F 8BB-\	8a/	8d\	.	8a/	to-
8B- 8F 8BB-\J	8b-/J	8d\J	.	8b-/	-bie
=13	=13	=13	=13	=13	=13
*	*	*tremolo	*	*	*
8A 8F 8BB-\L	[4.f/	8e-\L	.	8.cc\	je-
8A 8F 8BB-\	.	8e-\	.	.	.
.	.	.	.	16b-/	-szcze
8A 8F 8BB-\J	.	8e-\J	.	16a/	cho-
.	.	.	.	16g/	-rą-
*	*Xtremolo	*Xtremolo	*	*	*
=14	=14	=14	=14	=14	=14
8B- 8F 8BB-\L	16f/LL]	8d\L	.	16f/	-giew-
.	16g/J	.	.	16g/	-kę
8B- 8F 8BB-\	8a/	8d\	.	8a/	zro-
8B- 8F 8BB-\J	8b-/J	8d\J	.	8b-/	-bię,
*	*v	*v	*	*	*
=15	=15	=15	=15	=15
4.r	8r	.	16cc\	gdy
.	.	.	16bn\	po-
.	8ccL 8a 8f/	.	8cc\	-je-
.	8ccJ 8a-X 8f/	.	8dd\	-dziesz
!!LO:LB:g=original
=16	=16	=16	=16	=16
4.C/	8r	.	16.ee-\	w krwa-
.	.	.	32dd\	-we
.	8ccL 8g 8e-/	.	8.cc\	bo-
.	8ccJ 8g 8e-/	.	.	.
.	.	.	16g/	-je,
=17	=17	=17	=17	=17
4G\	8r	.	16b-/	zwieś
!	!LO:TX:b:t=cres-cen-do.:problem=dynamics with extention lines	!LO:HP:t=cres-cen-do.:ext2=cd	!	!
.	.	<	16a/	na
.	8b-L 8g 8d/	.	8b-/	dzi-
8F\	8ccJ 8a 8f/	.	8cc\	-dę
=18	=18	=18	=18	=18
4B- 4BB-\	8r	.	16.dd\	pra-
.	.	.	32cc\	-cę
.	8ddL 8b- 8d/	.	8dd\	mo-
8G 8C\	8enJ 8B-/	[	8een\	-ję;
=19	=19	=19	=19	=19
!	!	!LO:DY:t=pp.	!	!
8e- 8c 8A 8F\L	(8.f/L	pp	8.ff\	niech
8e- 8c 8A 8F\	.	.	.	.
.	16a/L	.	16ee-\	po-
8e- 8c 8A 8F\J	16cc/	.	16dd\	-wie-
.	16ee-/JJ	.	16cc\	-wa
*Xtremolo	*	*	*	*
=20	=20	=20	=20	=20
8dL 8B- 8F\	16dd/LL	.	16b-/	ku
.	16cc/J	.	16a/	tej
8dJ 8B- 8F\	8.b-/	.	8g/	stro-
!	!	!LO:DY:b=2	!	!
8f 8F\	.	sf	8f/	-nie
.	16d/Jk)	.	.	.
!!LO:LB:g=original
=21	=21	=21	=21	=21
*tremolo	*	*	*	*
8e- 8c 8A 8F\L	(8.f/L	.	8.ff\	gdzie
8e- 8c 8A 8F\	.	.	.	.
!	!	!	!LO:TX:a:t=ra-len-tan-do.:dur=8s:ext2=cd:problem=tekst with extention lines	!
.	16a/L	.	16ee-\	twa
8e- 8c 8A 8F\J	16cc/	.	16dd-X\	lu-
.	16ee-/JJ	.	16cc\	-ba
=22	=22	=22	=22	=22
8d-X 8B- 8F\L	16.dd-X/LL	.	16.b-\	we
.	32cc/JK	.	32cc\	wzach
8d-X 8B- 8F\	8.b-X/	.	8.dd-X\	to-
8d-X 8B- 8F\J	.	.	.	.
.	16en/Jk)	.	16en/	-nie,
=23	=23	=23	=23	=23
!	!	!	!LO:TX:a:i:t=lento.	!
16A| 16F\	16f 16c|/	.	16.f/	gdzie
16r	16r	.	.	.
!	!	!LO:DY:t=p.	!	!
.	.	p	32f/	twa
!	!LO:TX:b:i:t=colla parte	!	!	!
16B-LL 16E-^^\	16gLL 16e-^^/	.	16g/	lu-
16d 16D^^\	16a 16f#X^^/	.	16a/	-ba
16d 16G^^\	16b- 16g^^/	.	16b-/	we
16F^^\JJ	16ccJJ 16a 16e-^^/	.	16cc\	łzach
=24	=24	=24	=24	=24
!	!	!	!LO:TX:a:i:t=tempo 1mo	!
8B- 8F 8D 8BB-\L	4dd 4b- 4d/	.	4dd\	to-
8B- 8F 8D 8BB-\	.	.	.	.
!	!	!LO:DY:rj:t=p.	!	!
8B- 8F 8D 8BB-\J	(32bb-\LLL	p	8b-\	-nie.
.	32ddd\JJJ)	.	.	.
.	16r	.	.	.
=25:|!	=25:|!	=25:|!	=25:|!	=25:|!
*>C	*>C	*	*>C	*
8B- 8F 8D 8BB-\L	16.cccT\LL	.	4.r	.
.	32bb-\JJk	.	.	.
8B- 8F 8D 8BB-\	(8.ddd\L	.	.	.
8B- 8F 8D 8BB-\J	.	.	.	.
.	16ff\Jk)	.	.	.
!!LO:LB:g=original
=26	=26	=26	=26	=26
8B- 8F 8D 8BB-\L	16.ggT\LL	.	4.ryy	.
.	32ff\JJk	.	.	.
8B- 8F 8D 8BB-\	8.bb-\L	.	.	.
8B- 8F 8D 8BB-\J	.	.	.	.
.	16dd\Jk	.	.	.
=27	=27	=27	=27	=27
8A 8F 8E- 8BB-\L	16.ee-T\LL	.	4.ryy	.
.	32dd\JJk	.	.	.
8A 8F 8E- 8BB-\	8cc|\L	.	.	.
8A 8F 8E- 8BB-\J	8ff|\J	.	.	.
=28	=28	=28	=28	=28
.	(16qqff/LL	.	.	.
.	16qqee-/JJ)	.	.	.
8B- 8F 8D 8BB-\L	4.dd^^\	.	4.ryy	.
8B- 8F 8D 8BB-\	.	.	.	.
8B- 8F 8D 8BB-\J	.	.	.	.
=29	=29	=29	=29	=29
8B- 8F 8D 8BB-\L	16.ccT\LL	.	4.ryy	.
.	32b-\JJk	.	.	.
8B- 8F 8D 8BB-\	(8.dd\L	.	.	.
8B- 8F 8D 8BB-\J	.	.	.	.
.	16f\Jk)	.	.	.
=30	=30	=30	=30	=30
8B- 8F 8D 8BB-\L	16.gT/LL	.	4.ryy	.
.	32f/JJk	.	.	.
8B- 8F 8D 8BB-\	(8.b-/L	.	.	.
8B- 8F 8D 8BB-\J	.	.	.	.
.	16d/Jk)	.	.	.
*Xtremolo	*	*	*	*
=31	=31	=31	=31	=31
8GL 8E- 8BB-\	16.e-T/LL	.	4.ryy	.
.	32d/JJk	.	.	.
8G 8E- 8BB-\	8c|/L	.	.	.
8AJ 8F 8E- 8BB-\	8f|/J	.	.	.
=32	=32	=32	=32	=32
.	(16qqf/LL	.	.	.
.	16qqd/JJ	.	.	.
4.F 4.D 4.BB-\	4.B-^/)	.	4.ryy	.
==	==	==	==	==
*-	*-	*-	*-	*-
!!!system-decoration: {s1(s2,s3)}
!!!RDF**kern: | = vertical stroke
!!!ENC: Marta Lawrence
!!!END: 2021-04-15
!!!ENC: Berenika Jozajtis
!!!END: 2021-03-28
